X:14
T: Yonghu balu jun
N: C0016
O: China,Shaanxi, Shanbei
S: I, 57, 2)]
N: Urspruenglich gehoerte beim Tanz eine mit Muenzen gefuellte
N: Bambus- Rassel dazu.
N: Die Saengerin Lei Huilan ist Angehoerige der Zhuang Minderheit
N: und  studiert an der Guangzhouer Musikhochschule.
N:   Aufgenommen am 5.5.87
N:   Notation der Strophen 2-4 ist angegeben. Veraenderungen:
N:   -1. Strophe, Takte 1 u. 2: 5__-7__  5__-7__,  tief klingende 7)
N:   -5. Strophe: die letzten beiden Takte eine Oktave hoeher.
R: Xiaodiao, Da huangyang diao, Wuge, Yangge. Geming lishi minge]
M: 2/4
L: 1/16
K: F
A2c2d4 | f2f4d2 | c2A2c2f2 | c8 |
A2c2d3d | f2d2c2A2 | G2F2G2A2 | G8 |
c4_E4 | c4_E4 | c2A2c2d2 | F8 |
D2F2G3G | A2G2F2D2 | C2A,2C2D2 | C8 |
G3FG2A2 | G6A2 | c3Ac2d2 | F8 |
D2F2G3G | A2G2F2D2 | C2A,2C2D2 | C8

@@@ Tune index: 6015
